X:44
T:Dolo Typhon Osyridem trucidat, artusque illius hinc inde dissipat, sed hos collegit Isis incyta
T:Typhon kills Osiris by trickery, and scatters his members far and wide, but the renowned Isis collects them
T:Fuga XLIV
Z:Jack Campin <http://www.campin.me.uk/> version 1.3 Jan 2007
S:Michael Maier, Atalanta Fugiens (1618)
B:NLS H3.91.708 (Joscelyn Godwin's edition)
V:1 program 1 16                   % Atalanta
V:2 program 1 16 transpose -12     % Golden Apple
V:3 program 1 16 bass              % Hippomenes
M:6/4
L:1/8
Q:1/2=100
K:D minor
[V:1] A6         B6         |c6         B6       |A6          d6       |e6        f6        |
[V:2] d6         d6         |c6         d6       |c6          B6       |c6        d6        |
[V:3] D,2E,2F,E, D,2G,A,B,G,|A,2G,2F,E, D,2D,2E,2|F,2C,D,E,C, G,2D,2G,2|C,2A,2G,2 F,2 D,2F,2|
%
[V:1] d6       e6       |d6         c6       | B6            A6          |
[V:2] B6       c6       |d6         A6       | G6            A6          |
[V:3] G,3F,G,2 E,2C,2A,2|F,2D,2B,,2 F,2C,2D,2|_E,D,B,,C,D,E, F,C,D,E,F,G,|
%
[V:1] A6            B6           |c6         G6          |A6          =B6  |]
[V:2] c6            B6           |A6         B6          |A6           G6  |]
[V:3] A,G,F,_E,D,C, D,B,,E,F, G,2|F,2C,2F,2 _E,F,G,F,D,E,|F,=E,D,C,D,2 G,,6|]


